X: 1
T: Back of the Change House
O: Robert Bremner's 1757 collection
B: Athole Collection
N: Arr. T. Traub 3/13/96, mods. 7-24-03
M: 4/4
L: 1/8
K: D
B |\
"D"A<F A>f  "G"e>d B<d | "D"A<F A>B "G"d>e d<B |\
"D"A<F A>f "Em"e>d B<g | "A"f/g/a e<c "D"d2 d :|
g |\
"D"f>e d>f "G"e>d B<g | "D"f>e f>g "A"a>b a<g |\
"D"f<d g>f "G"e>d B<d | "A"f/g/a e<c "D"d2 d ||
g |\
"D"f>e d>f "G"e>d B<g | "D"f>e f>g "A"a>b a<g |\
"D"f<d g>f "G"e>d B<d | "A"a<f g<e "D"d2 d |]

%%sep 1 1 500

